**kern	**kern
*part1	*part1
*staff2	*staff1
*I"Piano	*
*clefF4	*clefG2
*k[b-e-]	*k[b-e-]
=1	=1
4E-	2.gg
4G 4B- 4e-	.
4G 4B- 4e-	.
=	=
4E-	2.ee-
4G 4B- 4e-	.
4G 4B- 4e-	.
=	=
4BB- 4B-	2dd
4F 4B- 4d	.
4F 4B- 4d	4dd
=	=
4BB- 4B-	2.ff
4F 4B- 4d	.
4F 4B- 4d	.
=	=
*	*^
2.GG 2.G	2.cc	4r
.	.	4en 4g 4b-
.	.	4e 4g 4b-
*	*v	*v
=	=
2.FF 2.F	4r
.	4c 4e-X 4a
.	4c 4e- 4a
=	=
4BBB- 4BB-	8dL 8f 8b-
.	8d
4DD	8f
.	8b-
4FF	8dd
.	8ffJ
=	=
4BBB- 4BB-	4b- 4dd 4ff 4bb-
4r	4r
4r	4r
=:|!	=:|!
*-	*-
!!!system-decoration: {(s1,s2)}
